X: 1252
T: Lady Nelly Wemye's Jig
%R: jig
B: Niel Gow & Sons "Complete Repository" v.1 p.25 #2
Z: 2021 John Chambers <jc:trillian.mit.edu>
M: 6/8
L: 1/8
K: A
% - - - - - - - - - -
% Voice 1 formatted for proofreading.
V: 1 staves=2
e !segno!|: Tc2e- ega | cAc e2d | cde- ef=g | B=GB d2B | ~c2e- efg | {fg}a>gf edc | .d(.[fd].d) .c(.a.c) | B=GB d2B :|
|: acA ecA | acA efg | acA ecA | B=GB d2B | acA ecA | agf edc | .d(.f.d) .c(.a.c) | B=GB d2B !segno!y:|
% - - - - - - - - - -
% Voice 2 preserves the book's staff layout.
V: 2 clef=bass middle=d
z !segno!|: a3 a3 | a3 a3 | a3 a3 | =g3 g3 | a3 a3 | a3 a3 | [d'3b3] [c'3a3] | =g3 g3 :||: a3 a3 | a3 a3 |
a3 a3 | =g3 g3 | a3 a3 | a3 [c'3a3] | [d'3b3] [c'3a3] | [b3=g3] [b3g3] !segno!y:|


